X:2846
L:1/8
M:4/4
K:C
[M:2/2][K:Dmix] .abc (3(ABc) | d2 cA (3(Bcd) AF | DFAF GBAG | FAdA FAdf | edcB ABce | 
 d2 cA (3(Bcd) AF | DFAF GBAG | FAdB AGFE | D2 DD D2 :: (3(ABc) | d2 (de) fdec | defg a2 (af) | 
 geeg fddf | edcB ABce | d2 cA (3(Bcd) AF | DFAF GBAG | FAdB AGFE | D2 DD D2 :|

